2 Export/Icons/Brands/Facebook.svg

<svg xmlns="http://www.w3.org/2000/svg" xmlns:xlink="http://www.w3.org/1999/xlink" width="24" height="24" viewBox="0 0 24 24">
  <defs>
    <path id="facebook-a" d="M21,12.0000375 C21,7.029439 16.970606,3 12.0000375,3 C7.029439,3 3,7.029439 3,12.0000375 C3,16.4922181 6.29117805,20.2155129 10.5937512,20.8907163 L10.5937512,14.6016185 L8.30860526,14.6016185 L8.30860526,12.0000375 L10.5937512,12.0000375 L10.5937512,10.017203 C10.5937512,7.76157196 11.9374075,6.51563332 13.9931703,6.51563332 C14.9778482,6.51563332 16.0078298,6.69140974 16.0078298,6.69140974 L16.0078298,8.90626008 L14.8729899,8.90626008 C13.7549514,8.90626008 13.4062488,9.60002 13.4062488,10.3117588 L13.4062488,12.0000375 L15.9023714,12.0000375 L15.5033398,14.6016185 L13.4062488,14.6016185 L13.4062488,20.8907163 C17.7088895,20.2155129 21,16.4922181 21,12.0000375 Z"/>
  </defs>
  <g fill="none" fill-rule="evenodd">
    <polygon points="0 0 24 0 24 24 0 24"/>
    <mask id="facebook-b" fill="#fff">
      <use xlink:href="#facebook-a"/>
    </mask>
    <use fill="#000" xlink:href="#facebook-a"/>
    <g fill="#000" mask="url(#facebook-b)">
      <rect width="24" height="24"/>
    </g>
  </g>
</svg>

<svg xmlns="http://www.w3.org/2000/svg" xmlns:xlink="http://www.w3.org/1999/xlink" width="24" height="24" viewBox="0 0 24 24">
  <defs>
    <path id="facebook-a" d="M21 12a9 9 0 1 0-10.406 8.89v-6.288H8.309V12h2.285v-1.983c0-2.255 1.343-3.501 3.4-3.501.984 0 2.014.175 2.014.175v2.215h-1.135c-1.118 0-1.467.694-1.467 1.406V12h2.496l-.399 2.602h-2.097v6.289A9.002 9.002 0 0 0 21 12z"/>
  </defs>
  <g fill="none" fill-rule="evenodd">
    <polygon points="0 0 24 0 24 24 0 24"/>
    <mask id="facebook-b" fill="#fff">
      <use xlink:href="#facebook-a"/>
    </mask>
    <use fill="#000" xlink:href="#facebook-a"/>
    <g fill="#000" mask="url(#facebook-b)">
      <rect width="24" height="24"/>
    </g>
  </g>
</svg>
